icon-themes/breeze_svg/cmd/32/wrapright.svg

<svg viewBox="0 0 32 32" xmlns="http://www.w3.org/2000/svg"><path d="m4 9v14h14v-14z" fill="#1d99f3"/><path d="m4 5v1h24v-1zm17 4v1h7v-1zm0 4v1h7v-1zm0 5v1h7v-1zm0 4v1h7v-1zm-17 4v1h24v-1z" fill="#4d4d4d"/></svg>

<svg xmlns="http://www.w3.org/2000/svg" viewBox="0 0 32 32">
 <path 
     style="fill:#1d99f3" 
     d="M 4 9 L 4 23 L 18 23 L 18 9 L 4 9 z "
     />
 <path 
     style="fill:#4d4d4d" 
     d="M 4 5 L 4 6 L 28 6 L 28 5 L 4 5 z M 21 9 L 21 10 L 28 10 L 28 9 L 21 9 z M 21 13 L 21 14 L 28 14 L 28 13 L 21 13 z M 21 18 L 21 19 L 28 19 L 28 18 L 21 18 z M 21 22 L 21 23 L 28 23 L 28 22 L 21 22 z M 4 26 L 4 27 L 28 27 L 28 26 L 4 26 z "
     />
</svg>
